img/lines.svg

<svg width="1360" height="700" viewBox="0 0 1360 700" fill="none" xmlns="http://www.w3.org/2000/svg">
<mask id="mask0" mask-type="alpha" maskUnits="userSpaceOnUse" x="0" y="0" width="1360" height="700">
<rect width="1360" height="700" fill="#002749"/>
</mask>
<g mask="url(#mask0)">
<path d="M234.091 425.513C245.907 417.02 256.032 406.858 266.194 396.661C291.567 371.198 317.164 345.511 369.844 345C449.849 344.242 490.824 400.092 528.536 451.494C544.207 472.855 559.315 493.447 576.425 508.889C606.306 535.727 640.244 559.702 665.698 570.437C718.081 592.623 765.299 603 826.167 603C850.514 603 874.123 600.495 897.364 596.917L897.212 595.928C897.21 595.929 897.209 595.929 897.208 595.929C1084.9 565.941 1225.79 423.191 1228 216.179C1225.79 9.1676 1084.9 -133.583 897.577 -163.929C874.368 -167.502 850.814 -170 826.536 -170C765.807 -170 718.721 -159.652 666.457 -137.516L666.451 -137.513C640.782 -126.842 607.312 -102.955 577.465 -76.1469C562.975 -62.9808 549.908 -46.1247 536.657 -28.1937C534.421 -25.1686 532.18 -22.1129 529.927 -19.0399C518.841 -3.9225 507.448 11.613 494.868 25.9768C464.564 60.5789 427.235 88.5406 370.204 88L370.213 87L370.204 87.9999C333.039 87.6395 309.122 74.8238 289.385 58.381C280.841 51.2634 273.073 43.4594 265.374 35.7243C264.203 34.5481 263.034 33.3736 261.864 32.2032C252.984 23.3211 244.04 14.6709 233.873 7.2963L233.872 7.29546C188.295 -25.8624 132.059 -45.473 70.671 -45.473C-14.9552 -45.473 -89.2129 -5.54967 -141.436 52.5988C-178.207 93.975 -203.896 144.922 -205 204.022V204.036V204.059V204.083V204.107V204.131V204.156V204.181V204.206V204.232V204.257V204.283V204.31V204.336V204.363V204.39V204.417V204.445V204.473V204.501V204.53V204.558V204.587V204.617V204.646V204.676V204.706V204.736V204.767V204.797V204.828V204.86V204.891V204.923V204.955V204.987V205.02V205.053V205.086V205.119V205.152V205.186V205.22V205.254V205.289V205.324V205.359V205.394V205.429V205.465V205.501V205.537V205.573V205.61V205.647V205.684V205.721V205.758V205.796V205.834V205.872V205.91V205.949V205.988V206.027V206.066V206.105V206.145V206.185V206.225V206.265V206.306V206.346V206.387V206.428V206.47V206.511V206.553V206.595V206.637V206.679V206.722V206.765V206.807V206.851V206.894V206.937V206.981V207.025V207.069V207.113V207.158V207.202V207.247V207.292V207.337V207.382V207.428V207.474V207.52V207.566V207.612V207.658V207.705V207.751V207.798V207.845V207.893V207.94V207.988V208.035V208.083V208.131V208.18V208.228V208.277V208.325V208.374V208.423V208.472V208.522V208.571V208.621V208.67V208.72V208.77V208.821V208.871V208.922V208.972V209.023V209.074V209.125V209.176V209.228V209.279V209.331V209.382V209.434V209.486V209.539V209.591V209.643V209.696V209.748V209.801V209.854V209.907V209.96V210.014V210.067V210.121V210.174V210.228V210.282V210.336V210.39V210.444V210.499V210.553V210.607V210.662V210.717V210.772V210.827V210.882V210.937V210.992V211.048V211.103V211.159V211.214V211.27V211.326V211.382V211.438V211.494V211.55V211.607V211.663V211.719V211.776V211.833V211.889V211.946V212.003V212.06V212.117V212.174V212.231V212.289V212.346V212.403V212.461V212.519V212.576V212.634V212.692V212.75V212.807V212.865V212.923V212.982V213.04V213.098V213.156V213.214V213.273V213.331V213.39V213.448V213.507V213.566V213.624V213.683V213.742V213.801V213.86V213.918V213.977V214.036V214.095V214.155V214.214V214.273V214.332V214.391V214.451V214.51V214.569V214.629V214.688V214.747V214.807V214.866V214.926V214.985V215.045V215.104V215.164V215.224V215.283V215.343V215.402V215.462V215.522V215.582V215.641V215.701V215.761V215.82V215.88V215.94V216V216.059V216.119V216.179V216.239V216.298V216.358V216.418V216.478V216.537V216.597V216.657V216.717V216.776V216.836V216.896V216.955V217.015V217.075V217.134V217.194V217.253V217.313V217.373V217.432V217.492V217.551V217.61V217.67V217.729V217.789V217.848V217.907V217.967V218.026V218.085V218.144V218.203V218.262V218.321V218.38V218.439V218.498V218.557V218.616V218.675V218.734V218.792V218.851V218.91V218.968V219.027V219.085V219.143V219.202V219.26V219.318V219.376V219.434V219.492V219.55V219.608V219.666V219.724V219.782V219.839V219.897V219.954V220.012V220.069V220.126V220.184V220.241V220.298V220.355V220.412V220.469V220.525V220.582V220.638V220.695V220.751V220.808V220.864V220.92V220.976V221.032V221.088V221.144V221.199V221.255V221.31V221.366V221.421V221.476V221.531V221.586V221.641V221.696V221.75V221.805V221.859V221.914V221.968V222.022V222.076V222.13V222.184V222.237V222.291V222.344V222.397V222.451V222.504V222.557V222.609V222.662V222.715V222.767V222.819V222.871V222.923V222.975V223.027V223.079V223.13V223.182V223.233V223.284V223.335V223.386V223.436V223.487V223.537V223.587V223.637V223.687V223.737V223.787V223.836V223.886V223.935V223.984V224.033V224.081V224.13V224.178V224.227V224.275V224.322V224.37V224.418V224.465V224.512V224.56V224.606V224.653V224.7V224.746V224.792V224.838V224.884V224.93V224.975V225.021V225.066V225.111V225.156V225.2V225.245V225.289V225.333V225.377V225.421V225.464V225.507V225.55V225.593V225.636V225.678V225.721V225.763V225.805V225.847V225.888V225.929V225.97V226.011V226.052V226.093V226.133V226.173V226.213V226.252V226.292V226.331V226.37V226.409V226.447V226.486V226.524V226.562V226.6V226.637V226.674V226.711V226.748V226.785V226.821V226.857V226.893V226.929V226.964V226.999V227.034V227.069V227.103V227.138V227.172V227.205V227.239V227.272V227.305V227.338V227.371V227.403V227.435V227.467V227.498V227.529V227.561V227.591V227.622V227.652V227.682V227.712V227.741V227.771V227.8V227.828V227.857V227.885V227.913V227.94V227.968V227.995V228.022V228.048V228.075V228.101V228.126V228.152V228.177V228.202V228.226V228.251V228.275V228.299V228.322V228.336C-203.896 287.078 -178.207 338.024 -141.068 379.4L-141.066 379.402C-89.2132 437.549 -14.9564 477.473 70.671 477.473C132.06 477.473 188.294 457.862 233.5 424.707L233.508 424.701C243.766 417.327 252.755 408.677 261.651 399.796C262.928 398.521 264.203 397.242 265.48 395.961C273.084 388.329 280.746 380.64 289.153 373.62C308.845 357.177 332.67 344.361 369.835 344C426.867 343.459 464.196 371.512 494.5 406.158C507.001 420.45 518.33 435.893 529.351 450.915C531.674 454.081 533.984 457.23 536.288 460.344C549.54 478.259 562.606 495.07 577.095 508.147L234.091 425.513ZM234.091 425.513C188.717 458.792 132.276 478.473 70.671 478.473C-15.2815 478.473 -89.7982 438.395 -141.812 380.068L234.091 425.513Z" stroke="#7DCEF1" stroke-opacity="0.13" stroke-width="2"/>
<path d="M826.949 600.396L826.948 600.396C795.31 587.046 753.025 557.177 715.748 523.68C697.634 507.325 681.303 486.303 664.755 463.921C661.876 460.027 658.99 456.093 656.088 452.135C642.326 433.368 628.186 414.086 612.583 396.239C574.766 352.982 528.214 317.992 457.094 318.667C410.751 319.116 381.052 335.1 356.497 355.614C346.008 364.378 336.449 373.975 326.953 383.509C325.358 385.11 323.765 386.71 322.169 388.303C311.059 399.4 299.821 410.219 286.993 419.444L286.986 419.45C230.492 460.903 160.216 485.422 83.5013 485.422C-23.5092 485.422 -116.304 435.504 -181.097 362.814L-181.099 362.811C-227.507 311.085 -259.621 247.379 -261 173.914V173.895V173.865V173.836V173.806V173.775V173.744V173.713V173.682V173.65V173.618V173.585V173.553V173.519V173.486V173.452V173.418V173.383V173.348V173.313V173.278V173.242V173.206V173.169V173.132V173.095V173.058V173.02V172.982V172.943V172.904V172.865V172.826V172.786V172.746V172.706V172.665V172.624V172.583V172.541V172.5V172.457V172.415V172.372V172.329V172.286V172.242V172.198V172.154V172.109V172.064V172.019V171.974V171.928V171.882V171.836V171.789V171.743V171.696V171.648V171.601V171.553V171.504V171.456V171.407V171.358V171.309V171.259V171.21V171.16V171.109V171.059V171.008V170.957V170.905V170.854V170.802V170.75V170.697V170.645V170.592V170.539V170.485V170.432V170.378V170.324V170.27V170.215V170.16V170.105V170.05V169.994V169.939V169.883V169.827V169.77V169.713V169.657V169.6V169.542V169.485V169.427V169.369V169.311V169.252V169.194V169.135V169.076V169.017V168.957V168.898V168.838V168.778V168.718V168.657V168.596V168.536V168.475V168.413V168.352V168.29V168.228V168.166V168.104V168.042V167.979V167.917V167.854V167.791V167.727V167.664V167.6V167.536V167.472V167.408V167.344V167.279V167.215V167.15V167.085V167.02V166.954V166.889V166.823V166.757V166.691V166.625V166.559V166.493V166.426V166.359V166.293V166.225V166.158V166.091V166.024V165.956V165.888V165.82V165.752V165.684V165.616V165.548V165.479V165.41V165.342V165.273V165.204V165.134V165.065V164.996V164.926V164.856V164.787V164.717V164.647V164.577V164.506V164.436V164.366V164.295V164.224V164.154V164.083V164.012V163.941V163.869V163.798V163.727V163.655V163.584V163.512V163.44V163.369V163.297V163.225V163.153V163.08V163.008V162.936V162.863V162.791V162.718V162.646V162.573V162.5V162.427V162.354V162.281V162.208V162.135V162.062V161.989V161.915V161.842V161.768V161.695V161.621V161.548V161.474V161.4V161.327V161.253V161.179V161.105V161.031V160.957V160.883V160.809V160.735V160.66V160.586V160.512V160.438V160.363V160.289V160.215V160.14V160.066V159.992V159.917V159.843V159.768V159.694V159.619V159.544V159.47V159.395V159.321V159.246V159.171V159.097V159.022V158.947V158.873V158.798V158.724V158.649V158.574V158.5V158.425V158.35V158.276V158.201V158.126V158.052V157.977V157.903V157.828V157.754V157.679V157.604V157.53V157.456V157.381V157.307V157.232V157.158V157.084V157.009V156.935V156.861V156.787V156.712V156.638V156.564V156.49V156.416V156.342V156.268V156.194V156.121V156.047V155.973V155.899V155.826V155.752V155.679V155.605V155.532V155.459V155.385V155.312V155.239V155.166V155.093V155.02V154.947V154.874V154.801V154.729V154.656V154.584V154.511V154.439V154.367V154.295V154.222V154.15V154.078V154.007V153.935V153.863V153.792V153.72V153.649V153.578V153.506V153.435V153.364V153.293V153.223V153.152V153.081V153.011V152.941V152.87V152.8V152.73V152.66V152.591V152.521V152.451V152.382V152.313V152.243V152.174V152.106V152.037V151.968V151.9V151.831V151.763V151.695V151.627V151.559V151.491V151.423V151.356V151.289V151.222V151.155V151.088V151.021V150.954V150.888V150.822V150.756V150.69V150.624V150.558V150.493V150.427V150.362V150.297V150.232V150.168V150.103V150.039V149.975V149.911V149.847V149.783V149.72V149.657V149.593V149.53V149.468V149.405V149.343V149.281V149.219V149.157V149.095V149.034V148.973V148.911V148.851V148.79V148.729V148.669V148.609V148.549V148.49V148.43V148.371V148.312V148.253V148.195V148.136V148.078V148.02V147.962V147.905V147.848V147.79V147.734V147.677V147.621V147.564V147.508V147.453V147.397V147.342V147.287V147.232V147.177V147.123V147.069V147.015V146.962V146.908V146.855V146.802V146.75V146.697V146.645V146.593V146.542V146.49V146.439V146.388V146.338V146.288V146.237V146.188V146.138V146.089V146.04V145.991V145.943V145.894V145.847V145.799V145.751V145.704V145.658V145.611V145.565V145.519V145.473V145.428V145.383V145.338V145.293V145.249V145.205V145.161V145.118V145.075V145.032V144.99V144.948V144.906V144.864V144.823V144.782V144.741V144.701V144.661V144.621V144.582V144.543V144.504V144.465V144.427V144.389V144.352V144.315V144.278V144.241V144.205V144.169V144.134V144.099V144.064V144.029V143.995V143.961V143.928V143.895V143.862V143.829V143.797V143.765V143.734V143.703V143.672V143.641V143.611V143.582V143.552V143.533C-259.621 69.6199 -227.506 5.91296 -181.558 -45.814C-116.303 -118.506 -23.5072 -168.422 83.5013 -168.422C160.216 -168.422 230.493 -143.904 287.45 -102.448L287.451 -102.447C300.165 -93.2207 311.345 -82.4012 322.435 -71.3037C323.897 -69.8411 325.357 -68.3734 326.819 -66.904C336.434 -57.2394 346.126 -47.4983 356.786 -38.6137C381.399 -18.0998 411.212 -2.11646 457.554 -1.66675L457.564 -2.66669C557.656 -1.71747 608.83 -71.5303 655.995 -135.874C675.472 -162.446 694.266 -188.084 715.538 -207.422L716.207 -206.678C716.207 -206.679 716.208 -206.68 716.209 -206.68C753.49 -240.18 795.311 -270.046 827.404 -283.394L827.41 -283.396C892.706 -311.064 951.539 -324 1027.41 -324C1057.74 -324 1087.17 -320.878 1116.16 -316.412C1350.2 -278.483 1526.24 -100.041 1529 158.724C1526.24 417.489 1350.2 595.93 1115.7 633.412C1086.71 637.878 1057.28 641 1026.95 641C951.079 641 892.245 628.064 826.949 600.396Z" stroke="#7DCEF1" stroke-opacity="0.13" stroke-width="2"/>
</g>
</svg>

<?xml version="1.0" encoding="utf-8"?>
<!-- Generator: Adobe Illustrator 23.0.5, SVG Export Plug-In . SVG Version: 6.00 Build 0)  -->
<svg version="1.1" id="Слой_1" xmlns="http://www.w3.org/2000/svg" xmlns:xlink="http://www.w3.org/1999/xlink" x="0px" y="0px"
	 viewBox="0 0 1360 700" style="enable-background:new 0 0 1360 700;" xml:space="preserve">
<style type="text/css">
	.st0{fill:#002749;filter:url(#Adobe_OpacityMaskFilter);}
	.st1{mask:url(#mask0_1_);}
	.st2{fill:none;stroke:#7DCEF1;stroke-width:2;stroke-opacity:0.13;}
</style>
<defs>
	<filter id="Adobe_OpacityMaskFilter" filterUnits="userSpaceOnUse" x="-262" y="-325" width="1792" height="967">
		<feColorMatrix  type="matrix" values="1 0 0 0 0  0 1 0 0 0  0 0 1 0 0  0 0 0 1 0"/>
	</filter>
</defs>
<mask maskUnits="userSpaceOnUse" x="-262" y="-325" width="1792" height="967" id="mask0_1_">
	<rect class="st0" width="1360" height="700"/>
</mask>
<g class="st1">
	<path class="st2" d="M1228,216.2c-2.2-207-143.1-349.8-330.4-380.1c-23.2-3.6-46.8-6.1-71-6.1c-60.7,0-107.8,10.3-160.1,32.5l0,0
		c-25.7,10.7-59.1,34.6-89,61.4c-14.5,13.2-27.6,30-40.8,48c-2.2,3-4.5,6.1-6.7,9.2c-11.1,15.1-22.5,30.7-35.1,45
		c-30.3,34.6-67.6,62.6-124.7,62l0-1l0,1c-37.2-0.4-61.1-13.2-80.8-29.6c-8.5-7.1-16.3-14.9-24-22.7c-1.2-1.2-2.3-2.4-3.5-3.5
		c-8.9-8.9-17.8-17.5-28-24.9l0,0C188.3-25.9,132.1-45.5,70.7-45.5C-15-45.5-89.2-5.5-141.4,52.6C-178.2,94-203.9,144.9-205,204
		v24.3c1.1,58.7,26.8,109.7,63.9,151.1l0,0c51.9,58.1,126.1,98.1,211.7,98.1c61.4,0,117.6-19.6,162.8-52.8l0,0
		c10.3-7.4,19.2-16,28.1-24.9c1.3-1.3,2.6-2.6,3.8-3.8c7.6-7.6,15.3-15.3,23.7-22.3c19.7-16.4,43.5-29.3,80.7-29.6
		c57-0.5,94.4,27.5,124.7,62.2c12.5,14.3,23.8,29.7,34.9,44.8c2.3,3.2,4.6,6.3,6.9,9.4c13.3,17.9,26.3,34.7,40.8,47.8l-2-0.5
		c0.4,0.4,0.9,0.8,1.3,1.2c29.9,26.8,63.8,50.8,89.3,61.5c52.4,22.2,99.6,32.6,160.5,32.6c24.3,0,48-2.5,71.2-6.1l-0.2-1
		C1084.9,565.9,1225.8,423.2,1228,216.2z"/>
	<path class="st2" d="M826.9,600.4L826.9,600.4c-31.6-13.3-73.9-43.2-111.2-76.7c-18.1-16.4-34.4-37.4-51-59.8
		c-2.9-3.9-5.8-7.8-8.7-11.8c-13.8-18.8-27.9-38-43.5-55.9c-37.8-43.3-84.4-78.2-155.5-77.6c-46.3,0.4-76,16.4-100.6,36.9
		c-10.5,8.8-20,18.4-29.5,27.9c-1.6,1.6-3.2,3.2-4.8,4.8c-11.1,11.1-22.3,21.9-35.2,31.1l0,0c-56.5,41.5-126.8,66-203.5,66
		c-107,0-199.8-49.9-264.6-122.6l0,0c-46.4-51.7-78.5-115.4-79.9-188.9v0v0v0v0v0v0v0v0v0v0v0v0v0v0v0v0v0v0v0v0v0v0v0v0v0v0v0v0v0
		v0v0v0v0v0v0v0v0v0v0v0v0v0v0v0v0v0v0v0v0v0v0v0v0v0v0v0v0v0v0v0v0v0v0v0v0v0v-0.1v0v-0.1v-0.1v0V171V171v-0.1v-0.1v-0.1v-0.1v-0.1
		v-0.1v-0.1v-0.1v-0.1v-0.1v-0.1v-0.1v-0.1v-0.1v-0.1v-0.1v-0.1V170v-0.1v-0.1v-0.1v-0.1v-0.1v-0.1v-0.1v-0.1v-0.1v-0.1v-0.1v-0.1
		v-0.1v-0.1v-0.1v-0.1V169V169v-0.1v-0.1v-0.1v-0.1v-0.1v-0.1v-0.1v-0.1v-0.1v-0.1v-0.1v-0.1v-0.1v-0.1V168V168v-0.1v-0.1v-0.1v-0.1
		v-0.1v-0.1v-0.1v-0.1v-0.1v-0.1v-0.1v-0.1v-0.1v-0.1V167V167v-0.1v-0.1v-0.1v-0.1v-0.1v-0.1v-0.1v-0.1v-0.1v-0.1v-0.1v-0.1v-0.1
		V166V166v-0.1v-0.1v-0.1v-0.1v-0.1v-0.1v-0.1v-0.1v-0.1v-0.1v-0.1v-0.1v-0.1V165v-0.1v-0.1v-0.1v-0.1v-0.1v-0.1v-0.1v-0.1v-0.1
		v-0.1v-0.1v-0.1v-0.1V164v-0.1v-0.1v-0.1v-0.1v-0.1v-0.1v-0.1v-0.1v-0.1v-0.1v-0.1v-0.1v-0.1V163v-0.1v-0.1v-0.1v-0.1v-0.1v-0.1
		v-0.1v-0.1v-0.1v-0.1v-0.1v-0.1v-0.1V162v-0.1v-0.1v-0.1v-0.1v-0.1v-0.1v-0.1v-0.1v-0.1v-0.1v-0.1v-0.1V161V161v-0.1v-0.1v-0.1
		v-0.1v-0.1v-0.1v-0.1v-0.1v-0.1v-0.1v-0.1v-0.1V160v-0.1v-0.1v-0.1v-0.1v-0.1v-0.1v-0.1v-0.1v-0.1v-0.1v-0.1v-0.1V159v-0.1v-0.1
		v-0.1v-0.1v-0.1v-0.1v-0.1v-0.1v-0.1v-0.1v-0.1v-0.1v-0.1V158v-0.1v-0.1v-0.1v-0.1v-0.1v-0.1v-0.1v-0.1v-0.1v-0.1v-0.1v-0.1V157
		v-0.1v-0.1v-0.1v-0.1v-0.1v-0.1v-0.1v-0.1v-0.1v-0.1v-0.1v-0.1V156V156v-0.1v-0.1v-0.1v-0.1v-0.1v-0.1v-0.1v-0.1v-0.1v-0.1v-0.1
		v-0.1V155v-0.1v-0.1v-0.1v-0.1v-0.1v-0.1v-0.1v-0.1v-0.1v-0.1v-0.1v-0.1v-0.1V154v-0.1v-0.1v-0.1v-0.1v-0.1v-0.1v-0.1v-0.1v-0.1
		v-0.1v-0.1v-0.1v-0.1V153v-0.1v-0.1v-0.1v-0.1v-0.1v-0.1v-0.1v-0.1v-0.1v-0.1v-0.1v-0.1v-0.1V152V152v-0.1v-0.1v-0.1v-0.1v-0.1
		v-0.1v-0.1v-0.1v-0.1v-0.1v-0.1v-0.1v-0.1V151V151v-0.1v-0.1v-0.1v-0.1v-0.1v-0.1v-0.1v-0.1v-0.1v-0.1v-0.1v-0.1v-0.1V150V150v-0.1
		v-0.1v-0.1v-0.1v-0.1v-0.1v-0.1v-0.1v-0.1v-0.1v-0.1v-0.1v-0.1v-0.1V149V149v-0.1v-0.1v-0.1v-0.1v-0.1v-0.1v-0.1v-0.1v-0.1v-0.1
		v-0.1v-0.1v-0.1v-0.1v-0.1V148V148v-0.1v-0.1v-0.1v-0.1v-0.1v-0.1v-0.1v-0.1v-0.1v-0.1v-0.1v-0.1v-0.1v-0.1v-0.1v-0.1V147V147v-0.1
		v-0.1v-0.1v-0.1v-0.1v-0.1v-0.1v-0.1v-0.1v-0.1v-0.1v-0.1v-0.1v-0.1v0v-0.1v0v0v0v0v0v0v0v0v0v0v0v0v0v0v0v0v0v0v0v0v0v0v0v0v0v0v0
		v0v0v0v0v0v0v0v0v0v0v0v0v0v0v0v0v0v0v0v0v0v0v0v0v0v0v0v0v0v0v0v0v0v0v0v0v0v0v0c1.4-73.9,33.5-137.6,79.4-189.3
		c65.3-72.7,158.1-122.6,265.1-122.6c76.7,0,147,24.5,203.9,66l0,0c12.7,9.2,23.9,20,35,31.1c1.5,1.5,2.9,2.9,4.4,4.4
		c9.6,9.7,19.3,19.4,30,28.3c24.6,20.5,54.4,36.5,100.8,36.9l0-1C557.7-1.7,608.8-71.5,656-135.9c19.5-26.6,38.3-52.2,59.5-71.5
		l0.7,0.7c0,0,0,0,0,0c37.3-33.5,79.1-63.4,111.2-76.7l0,0c65.3-27.7,124.1-40.6,200-40.6c30.3,0,59.8,3.1,88.8,7.6
		c234,37.9,410.1,216.4,412.8,475.1c-2.8,258.8-178.8,437.2-413.3,474.7c-29,4.5-58.4,7.6-88.8,7.6
		C951.1,641,892.2,628.1,826.9,600.4z"/>
</g>
</svg>
